gfx/saw4.svg

<?xml version="1.0" encoding="UTF-8" standalone="no"?>
<!-- Created with Inkscape (http://www.inkscape.org/) -->

<svg
   width="100mm"
   height="100mm"
   viewBox="0 0 100 100"
   version="1.1"
   id="svg135"
   inkscape:export-filename="saw3.svg"
   inkscape:export-xdpi="25.4"
   inkscape:export-ydpi="25.4"
   xmlns:inkscape="http://www.inkscape.org/namespaces/inkscape"
   xmlns:sodipodi="http://sodipodi.sourceforge.net/DTD/sodipodi-0.dtd"
   xmlns="http://www.w3.org/2000/svg"
   xmlns:svg="http://www.w3.org/2000/svg">
  <sodipodi:namedview
     id="namedview137"
     pagecolor="#ffffff"
     bordercolor="#666666"
     borderopacity="1.0"
     inkscape:showpageshadow="2"
     inkscape:pageopacity="0.0"
     inkscape:pagecheckerboard="0"
     inkscape:deskcolor="#d1d1d1"
     inkscape:document-units="mm"
     showgrid="false" />
  <defs
     id="defs132" />
  <g
     inkscape:label="Layer 1"
     inkscape:groupmode="layer"
     id="layer1">
    <path
       d="m 50.000004,60.192925 c -5.182006,0 -9.383034,-4.174917 -9.383034,-9.324758 0,-5.149838 4.201028,-9.324759 9.383034,-9.324759 5.182129,0 9.383034,4.174921 9.383034,9.324759 0,5.149841 -4.200905,9.324758 -9.383034,9.324758 z M 95.822625,52.926043 99.228798,54.726691 97.300773,49.967843 100,46.430866 92.673523,41.157557 88.17481,41.993569 87.4036,41.02894 l 0.642674,-0.900324 3.598973,-0.321541 2.506424,-3.02251 3.66324,0.707397 -3.534705,-4.115756 1.670955,-3.601286 -10.218512,-3.472669 0.514139,-1.286174 0.06427,-2.186495 4.30591,-0.771705 -4.884317,-2.636655 0.514139,-4.115756 -10.025708,0.51447 -1.478147,2.057877 -0.642674,1.543409 h -1.349616 l -0.385603,-1.221865 1.092545,-1.02894 2.506428,-3.279742 -0.706942,-0.321544 -0.128535,-1.736334 3.020566,-2.3151123 h -4.94859 L 71.850902,4.9517684 63.62468,8.9067521 H 61.953726 L 60.861181,6.9453376 60.668382,4.9517684 62.467868,2.5080386 58.868896,3.4726686 57.197945,3.4083598 55.269923,0 48.650388,6.4308681 V 11.18971 L 47.686375,12.025723 46.593831,11.18971 V 6.1736333 L 44.665813,4.7588422 45.501286,0.96463004 41.323908,3.7942122 37.789203,1.2861736 32.840618,10.482314 29.434448,9.3247587 29.048844,5.5948552 l -2.892031,4.051447 -4.11311,-1.2861736 -0.964011,9.4533764 2.249358,3.086816 0.128534,1.286174 -1.349614,-0.192926 -2.120823,-3.344051 -2.570694,0.643086 -2.313625,-4.051446 -1.349614,4.887459 -4.2416453,0.385852 2.2493573,9.839229 -3.40617,1.736334 -3.2133677,-2.700964 0.4498718,5.016076 c 0,0 -3.5347047,1.672026 -3.8560413,1.864953 -0.3213369,0.192927 5.2699228,8.167202 5.2699228,8.167202 L 11.118252,44.82315 12.14653,45.659164 11.118252,46.430866 6.9408742,45.659164 4.6272496,47.395498 0.64267354,45.594855 2.8920311,50.67524 0,53.569134 7.9691521,59.807074 6.362468,62.958201 H 2.5706942 l 3.1491003,3.665593 -1.4138815,4.115756 9.254499,2.636657 3.534704,-1.993571 h 0.899743 l -0.257069,0.771706 -3.856041,2.379421 -0.385605,2.893891 -3.7275061,0.964629 4.3059131,2.315113 c 0,0 0,3.858522 0,4.244373 0,0.385851 10.347044,-0.385851 10.347044,-0.385851 l 0.449871,3.987138 -3.1491,2.122186 5.141388,0.385854 0.899743,4.180061 9.190233,-3.794211 1.156812,-3.472668 0.899741,-1.028938 0.321339,0.964628 -1.349616,4.308684 1.22108,1.221866 0.128536,1.543406 c 0,0 -1.863754,2.443731 -2.056557,2.829582 -0.1928,0.385851 5.269923,-1.093248 5.269923,-1.093248 L 44.665813,100 52.185089,93.376208 c 0,0 2.827763,1.864949 2.892031,2.057876 0.06427,0.192928 -0.578406,3.922829 -0.578406,3.922829 l 4.048843,-2.829582 3.598972,2.122189 4.370182,-8.29582 -1.542419,-3.601287 0.385607,-1.286175 1.028276,0.385855 1.285348,4.180061 c 0,0 2.699228,0.578778 2.892031,0.578778 0.1928,0 0.257067,4.437302 0.257067,4.437302 l 3.40617,-4.308684 3.66324,1.093247 0.706941,-8.038583 1.028277,-2.122186 3.406169,-0.257237 1.863754,3.472669 1.285348,-5.080385 h 4.305914 l -2.185093,-9.839227 -3.341901,-1.157557 -0.514138,-1.607719 1.542415,0.06431 3.791776,2.186498 0.578406,-1.028942 c 0,0 1.606683,0.06431 2.056553,0.06431 0.449875,0 2.185093,2.250803 2.185093,2.250803 l -0.321339,-4.758843 3.920308,-1.993567 c 0,0 -5.269923,-8.745981 -5.462723,-8.745981 -0.192803,0 3.084834,-2.315116 3.084834,-2.315116"
       style="fill:#231f20;fill-opacity:1;fill-rule:nonzero;stroke:none;stroke-width:0.0128576"
       id="path22" />
  </g>
</svg>

<?xml version="1.0" encoding="UTF-8" standalone="no"?>
<!-- Created with Inkscape (http://www.inkscape.org/) -->

<svg
   width="100mm"
   height="100mm"
   viewBox="0 0 100 100"
   version="1.1"
   id="svg135"
   inkscape:export-filename="saw3.svg"
   inkscape:export-xdpi="25.4"
   inkscape:export-ydpi="25.4"
   sodipodi:docname="saw4.svg"
   inkscape:version="1.2.1 (9c6d41e410, 2022-07-14, custom)"
   xmlns:inkscape="http://www.inkscape.org/namespaces/inkscape"
   xmlns:sodipodi="http://sodipodi.sourceforge.net/DTD/sodipodi-0.dtd"
   xmlns="http://www.w3.org/2000/svg"
   xmlns:svg="http://www.w3.org/2000/svg">
  <sodipodi:namedview
     id="namedview137"
     pagecolor="#ffffff"
     bordercolor="#666666"
     borderopacity="1.0"
     inkscape:showpageshadow="2"
     inkscape:pageopacity="0.0"
     inkscape:pagecheckerboard="0"
     inkscape:deskcolor="#d1d1d1"
     inkscape:document-units="mm"
     showgrid="false"
     inkscape:zoom="1.4340417"
     inkscape:cx="188.97638"
     inkscape:cy="188.97638"
     inkscape:window-width="1366"
     inkscape:window-height="717"
     inkscape:window-x="0"
     inkscape:window-y="27"
     inkscape:window-maximized="1"
     inkscape:current-layer="layer1" />
  <defs
     id="defs132" />
  <g
     inkscape:label="Layer 1"
     inkscape:groupmode="layer"
     id="layer1">
    <path
       id="path22"
       style="fill:#000000;fill-opacity:1;fill-rule:nonzero;stroke:none;stroke-width:0.0128576"
       d="M 55.270011 0 L 48.65026 6.4306152 L 48.65026 11.189498 L 47.686495 12.025623 L 46.594055 11.189498 L 46.594055 6.1737834 L 44.666007 4.7588826 L 45.501099 0.96479899 L 41.324093 3.7940837 L 37.789425 1.2862264 L 32.840373 10.482564 L 29.434379 9.3250122 L 29.048873 5.5950073 L 26.15706 9.6464396 L 22.043616 8.3602132 L 21.07985 17.813383 L 23.328809 20.900533 L 23.457483 22.186243 L 22.108211 21.99349 L 19.986894 18.649508 L 17.416508 19.292362 L 15.102954 15.24093 L 13.753166 20.128487 L 9.5115641 20.51451 L 11.761039 30.353703 L 8.3545288 32.090031 L 5.1412882 29.388904 L 5.59139 34.405135 C 5.59139 34.405135 2.0566309 36.077211 1.7352946 36.270138 C 1.413958 36.463064 7.0052572 44.437081 7.0052572 44.437081 L 11.118184 44.823104 L 12.146545 45.659229 L 11.118184 46.430758 L 6.9406616 45.659229 L 4.6271077 47.395557 L 0.64285482 45.594633 L 2.8918132 50.67546 L 0 53.56934 L 7.9690226 59.807202 L 6.3624023 62.958431 L 2.5709025 62.958431 L 5.7195475 66.62384 L 4.3056803 70.739351 L 13.560413 73.3764 L 17.095081 71.382723 L 17.994767 71.382723 L 17.737935 72.154252 L 13.88184 74.533952 L 13.496334 77.427832 L 9.768396 78.392114 L 14.074593 80.707218 L 14.074593 84.951921 C 14.074593 85.337771 24.421765 84.565898 24.421765 84.565898 L 24.87135 88.553251 L 21.722188 90.675085 L 26.863993 91.061108 L 27.76368 95.241215 L 36.953817 91.447131 L 38.110335 87.974475 L 39.010539 86.945597 L 39.331449 87.90988 L 37.982178 92.21866 L 39.203292 93.440291 L 39.331449 94.983866 C 39.331449 94.983866 37.468047 97.427817 37.275244 97.813668 C 37.082444 98.199518 42.545207 96.720194 42.545207 96.720194 L 44.666007 100.0001 L 52.184928 93.376213 C 52.184928 93.376213 55.01299 95.241041 55.077258 95.433968 C 55.141528 95.626896 54.498482 99.356726 54.498482 99.356726 L 58.547331 96.527441 L 62.146594 98.649276 L 66.51687 90.353658 L 64.974329 86.752327 L 65.359835 85.466101 L 66.388196 85.852124 L 67.673389 90.032231 C 67.673389 90.032231 70.372916 90.611007 70.565719 90.611007 C 70.758518 90.611007 70.82255 95.048462 70.82255 95.048462 L 74.228544 90.739681 L 77.891886 91.832638 L 78.59882 83.794368 L 79.627181 81.672017 L 83.033175 81.414669 L 84.897144 84.887325 L 86.182336 79.807015 L 90.488534 79.807015 L 88.303137 69.967822 L 84.961222 68.81027 L 84.447559 67.202616 L 85.989583 67.266695 L 89.7816 69.453125 L 90.359859 68.424247 C 90.359859 68.424247 91.966712 68.488843 92.416581 68.488843 C 92.866456 68.488843 94.601461 70.739351 94.601461 70.739351 L 94.280033 65.980469 L 98.200724 63.987309 C 98.200724 63.987309 92.930808 55.241073 92.738009 55.241073 C 92.545206 55.241073 95.822575 52.925968 95.822575 52.925968 L 99.228569 54.726892 L 97.300521 49.968009 L 100.0001 46.430758 L 92.673413 41.157694 L 88.17498 41.993819 L 87.403451 41.02902 L 88.046305 40.128817 L 91.645052 39.806873 L 94.151876 36.784318 L 97.814701 37.491768 L 94.280033 33.376257 L 95.951249 29.774927 L 85.732751 26.302271 L 86.246932 25.016044 L 86.311011 22.829614 L 90.617208 22.058085 L 85.732751 19.421037 L 86.246932 15.305526 L 76.221187 15.819706 L 74.742725 17.877979 L 74.100387 19.421037 L 72.750598 19.421037 L 72.365092 18.199406 L 73.457532 17.170528 L 75.963839 13.890625 L 75.256905 13.569198 L 75.128748 11.832869 L 78.149235 9.5177653 L 73.2007 9.5177653 L 71.850911 4.9516357 L 63.62454 8.9069499 L 61.953841 8.9069499 L 60.861401 6.9453125 L 60.668132 4.9516357 L 62.468022 2.5078573 L 58.868758 3.4726562 L 57.198059 3.4085775 L 55.270011 0 z M 50.000049 39.499915 A 10.5 10.5 0 0 1 60.500183 50.000049 A 10.5 10.5 0 0 1 50.000049 60.500183 A 10.5 10.5 0 0 1 39.499915 50.000049 A 10.5 10.5 0 0 1 50.000049 39.499915 z " />
  </g>
</svg>
